public/isotype.svg

<svg fill="none" height="83" viewBox="0 0 84 83" width="84" xmlns="http://www.w3.org/2000/svg" xmlns:xlink="http://www.w3.org/1999/xlink"><filter id="a" color-interpolation-filters="sRGB" filterUnits="userSpaceOnUse" height="38.3739" width="75.0034" x="4.20751" y="22.6755"><feFlood flood-opacity="0" result="BackgroundImageFix"/><feColorMatrix in="SourceAlpha" result="hardAlpha" type="matrix" values="0 0 0 0 0 0 0 0 0 0 0 0 0 0 0 0 0 0 127 0"/><feOffset dy=".581424"/><feGaussianBlur stdDeviation="1.16285"/><feComposite in2="hardAlpha" operator="out"/><feColorMatrix type="matrix" values="0 0 0 0 0 0 0 0 0 0 0 0 0 0 0 0 0 0 0.16 0"/><feBlend in2="BackgroundImageFix" mode="normal" result="effect1_dropShadow_840_1732"/><feBlend in="SourceGraphic" in2="effect1_dropShadow_840_1732" mode="normal" result="shape"/></filter><linearGradient id="b" gradientUnits="userSpaceOnUse" x1="216.904" x2="-132.904" y1="82.5622" y2=".000001"><stop offset="0" stop-color="#f26a4b"/><stop offset="1" stop-color="#d94141"/></linearGradient><circle cx="41.9998" cy="41.2811" fill="url(#b)" r="41.2811"/><g filter="url(#a)"><path d="m69.5505 24.4198c-4.2244 0-7.3302 3.2033-7.3302 7.5048-.021 1.036.1718 2.0652.5662 3.0233.3944.958.982 1.8243 1.7259 2.5447l-18.1335 18.3258-21.8418-21.8488c-.0892-.0893-.195-.1602-.3116-.2086-.1165-.0484-.2415-.0733-.3676-.0733-.1262 0-.2511.0249-.3677.0733s-.2224.1193-.3116.2086l-10.8369 10.8499c-.6109-.3766-1.3155-.5731-2.033-.5671-2.17696 0-3.7755 1.6557-3.7755 3.8666 0 2.2108 1.59854 3.8665 3.7755 3.8665 2.177 0 3.7779-1.6557 3.7779-3.8665.0057-.6547-.1467-1.301-.444-1.884l10.2153-10.2251 21.825 21.8512c.0912.0912.1998.1632.3194.2115s.2477.072.3766.0696c.1263-.0002.2513-.0254.3679-.074.1165-.0487.2224-.1199.3114-.2095l19.048-19.2439c1.0682.5436 2.2509.8229 3.4491.8146 4.2219 0 7.3302-3.2153 7.3302-7.5048s-3.1131-7.5048-7.335-7.5048zm-56.6064 20.8635-.0552-.0504zm-2.6258 4.9288c-1.18327 0-1.94894-.9613-1.94894-2.0859 0-1.1247.76567-2.0835 1.94894-2.0835 1.1833 0 1.949.9492 1.949 2.0835 0 1.1342-.7657 2.0859-1.949 2.0859zm3.1779-4.2415c.0528.0841.1032.1706.1512.262-.0432-.0914-.0936-.1779-.1512-.262zm-.4225-.5527.1057.1226zm.2401.2836c.0432.0552.084.1129.1248.1706-.0408-.0577-.0816-.1154-.1248-.1706zm51.9379-7.6034.0216.0144zm-.3792-.2883h.0144zm4.678-.9925c-2.7795 0-4.5604-2.2301-4.5604-4.8927s1.7929-4.8951 4.5604-4.8951c2.7674 0 4.5724 2.2301 4.5724 4.8951s-1.7954 4.8927-4.5724 4.8927z" fill="#f7f5f3"/></g></svg>

<svg width="84" height="83" viewBox="0 0 84 83" fill="none" xmlns="http://www.w3.org/2000/svg">
<circle cx="41.9998" cy="41.2811" r="41.2811" fill="url(#paint0_linear_840_1732)"/>
<g filter="url(#filter0_d_840_1732)">
<path d="M69.5505 24.4198C65.3261 24.4198 62.2203 27.6231 62.2203 31.9246C62.1993 32.9606 62.3921 33.9898 62.7865 34.9479C63.1809 35.9059 63.7685 36.7722 64.5124 37.4926V37.4926L46.3789 55.8184L24.5371 33.9696C24.4479 33.8803 24.3421 33.8094 24.2255 33.761C24.109 33.7126 23.984 33.6877 23.8579 33.6877C23.7317 33.6877 23.6068 33.7126 23.4902 33.761C23.3736 33.8094 23.2678 33.8803 23.1786 33.9696L12.3417 44.8195C11.7308 44.4429 11.0262 44.2464 10.3087 44.2524C8.13174 44.2524 6.5332 45.9081 6.5332 48.119C6.5332 50.3298 8.13174 51.9855 10.3087 51.9855C12.4857 51.9855 14.0866 50.3298 14.0866 48.119C14.0923 47.4643 13.9399 46.818 13.6426 46.235L23.8579 36.0099L45.6829 57.8611C45.7741 57.9523 45.8827 58.0243 46.0023 58.0726C46.1219 58.1209 46.25 58.1446 46.3789 58.1422C46.5052 58.142 46.6302 58.1168 46.7468 58.0682C46.8633 58.0195 46.9692 57.9483 47.0582 57.8587L66.1062 38.6148C67.1744 39.1584 68.3571 39.4377 69.5553 39.4294C73.7772 39.4294 76.8855 36.2141 76.8855 31.9246C76.8855 27.6351 73.7724 24.4198 69.5505 24.4198ZM12.9441 45.2833L12.8889 45.2329L12.9441 45.2833ZM10.3183 50.2121C9.13503 50.2121 8.36936 49.2508 8.36936 48.1262C8.36936 47.0015 9.13503 46.0427 10.3183 46.0427C11.5016 46.0427 12.2673 46.9919 12.2673 48.1262C12.2673 49.2604 11.5016 50.2121 10.3183 50.2121ZM13.4962 45.9706C13.549 46.0547 13.5994 46.1412 13.6474 46.2326C13.6042 46.1412 13.5538 46.0547 13.4962 45.9706ZM13.0737 45.4179L13.1794 45.5405L13.0737 45.4179ZM13.3138 45.7015C13.357 45.7567 13.3978 45.8144 13.4386 45.8721C13.3978 45.8144 13.357 45.7567 13.3138 45.7015ZM65.2517 38.0981L65.2733 38.1125L65.2517 38.0981ZM64.8725 37.8098H64.8869H64.8725ZM69.5505 36.8173C66.771 36.8173 64.9901 34.5872 64.9901 31.9246C64.9901 29.262 66.783 27.0295 69.5505 27.0295C72.3179 27.0295 74.1229 29.2596 74.1229 31.9246C74.1229 34.5896 72.3275 36.8173 69.5505 36.8173V36.8173Z" fill="#F7F5F3"/>
</g>
<defs>
<filter id="filter0_d_840_1732" x="4.20751" y="22.6755" width="75.0034" height="38.3739" filterUnits="userSpaceOnUse" color-interpolation-filters="sRGB">
<feFlood flood-opacity="0" result="BackgroundImageFix"/>
<feColorMatrix in="SourceAlpha" type="matrix" values="0 0 0 0 0 0 0 0 0 0 0 0 0 0 0 0 0 0 127 0" result="hardAlpha"/>
<feOffset dy="0.581424"/>
<feGaussianBlur stdDeviation="1.16285"/>
<feComposite in2="hardAlpha" operator="out"/>
<feColorMatrix type="matrix" values="0 0 0 0 0 0 0 0 0 0 0 0 0 0 0 0 0 0 0.16 0"/>
<feBlend mode="normal" in2="BackgroundImageFix" result="effect1_dropShadow_840_1732"/>
<feBlend mode="normal" in="SourceGraphic" in2="effect1_dropShadow_840_1732" result="shape"/>
</filter>
<linearGradient id="paint0_linear_840_1732" x1="216.904" y1="82.5622" x2="-132.904" y2="9.36725e-07" gradientUnits="userSpaceOnUse">
<stop stop-color="#F26A4B"/>
<stop offset="1" stop-color="#D94141"/>
</linearGradient>
</defs>
</svg>
